;FLAVOR:Marlin
;TIME:12592
;Filament used: 10.0693m
;Layer height: 0.15
;MINX:19.7
;MINY:21.95
;MINZ:0.2
;MAXX:194.353
;MAXY:194.034
;MAXZ:8.45
;Generated with Cura_SteamEngine 4.12.0
M140 S60
M105
M190 S60
M104 S200
M105
M109 S200
M82 ;absolute extrusion mode
; -- START GCODE --
G21                     ;set units to millimetres
G90                     ;set to absolute positioning
M106 S0                 ;set fan speed to zero (turned off)
G28                     ;home all axis
M420 S1                 ;turn on mesh bed levelling if enabled in firmware
G92 E0                  ;zero the extruded length
G1 Z1 F1000             ;move up slightly
G1 X60.0 Z0 E9.0 F1000.0;intro line
G1 X100.0 E21.5 F1000.0 ;continue line
G92 E0                  ;zero the extruded length again
; -- end of START GCODE --
G92 E0
G92 E0
G1 F3000 E-5
;LAYER_COUNT:56
;LAYER:0
M107
G0 F3600 X22.465 Y24.388 Z0.2
;TYPE:SKIRT
G1 F3000 E0
G1 F1800 X23.051 Y23.858 E0.02628
G1 X23.687 Y23.391 E0.05252
G1 X24.078 Y23.149 E0.06782
G1 X24.778 Y22.784 E0.09407
G1 X25.512 Y22.492 E0.12035
G1 X26.007 Y22.342 E0.13755
G1 X26.466 Y22.219 E0.15336
G1 X27.238 Y22.053 E0.17962
G1 X27.711 Y21.991 E0.19549
G1 X28.514 Y21.95 E0.22223
G1 X91.492 Y21.951 E2.31689
G1 X92.295 Y21.992 E2.34363
G1 X92.324 Y21.995 E2.3446
G1 X93.104 Y22.116 E2.37085
G1 X94.002 Y22.344 E2.40167
G1 X94.754 Y22.588 E2.42796
G1 X95.476 Y22.906 E2.4542
G1 X95.922 Y23.149 E2.47109
G1 X95.968 Y23.176 E2.47287
G1 X96.628 Y23.61 E2.49914
G1 X97.241 Y24.108 E2.52541
G1 X97.862 Y24.715 E2.55429
G1 X98.392 Y25.301 E2.58057
G1 X98.859 Y25.937 E2.60682
G1 X99.101 Y26.328 E2.62211
G1 X99.466 Y27.028 E2.64837
G1 X99.758 Y27.762 E2.67464
G1 X99.908 Y28.257 E2.69184
G1 X100.031 Y28.716 E2.70765
G1 X100.249 Y29.874 E2.74684
G1 X100.252 Y29.901 E2.74774
G1 X100.3 Y30.762 E2.77643
G1 X100.299 Y119.242 E5.71928
G1 X100.258 Y120.045 E5.74603
G1 X100.255 Y120.074 E5.74699
G1 X100.134 Y120.854 E5.77325
G1 X99.906 Y121.752 E5.80406
G1 X99.662 Y122.504 E5.83036
G1 X99.344 Y123.226 E5.8566
G1 X99.101 Y123.672 E5.87349
G1 X99.074 Y123.718 E5.87527
G1 X98.64 Y124.378 E5.90154
G1 X98.142 Y124.991 E5.92781
G1 X97.535 Y125.612 E5.95669
G1 X96.949 Y126.142 E5.98297
G1 X96.313 Y126.609 E6.00921
G1 X95.922 Y126.851 E6.02451
G1 X95.222 Y127.216 E6.05076
G1 X94.488 Y127.508 E6.07704
G1 X93.993 Y127.658 E6.09424
G1 X93.534 Y127.781 E6.11005
G1 X92.762 Y127.947 E6.13631
G1 X92.289 Y128.009 E6.15218
G1 X91.486 Y128.05 E6.17892
G1 X28.508 Y128.049 E8.27358
G1 X27.705 Y128.008 E8.30032
G1 X27.676 Y128.005 E8.30129
G1 X26.896 Y127.884 E8.32754
G1 X25.998 Y127.656 E8.35836
G1 X25.246 Y127.412 E8.38465
G1 X24.524 Y127.094 E8.41089
G1 X24.078 Y126.851 E8.42778
G1 X24.032 Y126.824 E8.42956
G1 X23.372 Y126.39 E8.45583
G1 X22.759 Y125.892 E8.4821
G1 X22.138 Y125.285 E8.51098
G1 X21.608 Y124.699 E8.53726
G1 X21.141 Y124.063 E8.56351
G1 X20.899 Y123.672 E8.5788
G1 X20.534 Y122.972 E8.60506
G1 X20.242 Y122.238 E8.63133
G1 X20.092 Y121.743 E8.64853
G1 X19.969 Y121.284 E8.66434
G1 X19.751 Y120.126 E8.70353
G1 X19.748 Y120.099 E8.70443
G1 X19.7 Y119.238 E8.73311
G1 X19.701 Y30.758 E11.67597
G1 X19.742 Y29.955 E11.70271
G1 X19.745 Y29.926 E11.70368
G1 X19.866 Y29.146 E11.72994
G1 X20.094 Y28.248 E11.76075
G1 X20.338 Y27.496 E11.78705
G1 X20.656 Y26.774 E11.81329
G1 X20.899 Y26.328 E11.83018
G1 X20.926 Y26.282 E11.83195
G1 X21.36 Y25.622 E11.85823
G1 X21.858 Y25.009 E11.8845
G1 X22.465 Y24.388 E11.91338
G0 F3600 X22.747 Y24.67
G1 F1800 X23.319 Y24.156 E11.93896
G1 X24.234 Y23.521 E11.976
G1 X24.28 Y23.494 E11.97777
G1 X24.963 Y23.14 E12.00336
G1 X25.679 Y22.858 E12.02895
G1 X26.57 Y22.605 E12.05976
G1 X27.322 Y22.445 E12.08533
G1 X27.753 Y22.389 E12.09979
G1 X28.514 Y22.35 E12.12513
G1 X91.492 Y22.351 E14.21979
G1 X92.253 Y22.39 E14.24513
G1 X92.282 Y22.393 E14.2461
G1 X93.042 Y22.512 E14.27169
G1 X93.898 Y22.731 E14.30108
G1 X94.63 Y22.969 E14.32668
G1 X95.332 Y23.282 E14.35224
G1 X95.766 Y23.521 E14.36872
G1 X96.408 Y23.944 E14.39429
G1 X97.253 Y24.67 E14.43135
G1 X97.58 Y24.997 E14.44673
G1 X98.094 Y25.569 E14.4723
G1 X98.729 Y26.484 E14.50935
G1 X98.756 Y26.53 E14.51112
G1 X99.11 Y27.213 E14.53671
G1 X99.392 Y27.929 E14.5623
G1 X99.645 Y28.82 E14.59311
G1 X99.852 Y29.918 E14.63027
G1 X99.855 Y29.945 E14.63118
G1 X99.9 Y30.762 E14.65839
G1 X99.899 Y119.242 E17.60125
G1 X99.86 Y120.003 E17.62659
G1 X99.857 Y120.032 E17.62756
G1 X99.738 Y120.792 E17.65315
G1 X99.519 Y121.648 E17.68253
G1 X99.281 Y122.38 E17.70814
G1 X98.968 Y123.082 E17.7337
G1 X98.729 Y123.516 E17.75018
G1 X98.306 Y124.158 E17.77575
G1 X97.58 Y125.003 E17.8128
G1 X97.253 Y125.33 E17.82818
G1 X96.681 Y125.844 E17.85376
G1 X95.766 Y126.479 E17.89081
G1 X95.72 Y126.506 E17.89258
G1 X95.037 Y126.86 E17.91817
G1 X94.321 Y127.142 E17.94376
G1 X93.43 Y127.395 E17.97457
G1 X92.678 Y127.555 E18.00014
G1 X92.247 Y127.611 E18.01459
G1 X91.486 Y127.65 E18.03994
G1 X28.508 Y127.649 E20.1346
G1 X27.747 Y127.61 E20.15994
G1 X27.718 Y127.607 E20.16091
G1 X26.958 Y127.488 E20.18649
G1 X26.102 Y127.269 E20.21588
G1 X25.37 Y127.031 E20.24148
G1 X24.668 Y126.718 E20.26705
G1 X24.234 Y126.479 E20.28353
G1 X23.592 Y126.056 E20.3091
G1 X22.747 Y125.33 E20.34615
G1 X22.42 Y125.003 E20.36153
G1 X21.906 Y124.431 E20.38711
G1 X21.271 Y123.516 E20.42415
G1 X21.244 Y123.47 E20.42593
G1 X20.89 Y122.787 E20.45151
G1 X20.608 Y122.071 E20.47711
G1 X20.355 Y121.18 E20.50792
G1 X20.148 Y120.082 E20.54508
G1 X20.145 Y120.055 E20.54598
G1 X20.1 Y119.238 E20.5732
G1 X20.101 Y30.758 E23.51605
G1 X20.14 Y29.997 E23.5414
G1 X20.143 Y29.968 E23.54237
G1 X20.262 Y29.208 E23.56795
G1 X20.481 Y28.352 E23.59734
G1 X20.719 Y27.62 E23.62294
G1 X21.032 Y26.918 E23.64851
G1 X21.271 Y26.484 E23.66498
G1 X21.694 Y25.842 E23.69056
G1 X22.42 Y24.997 E23.72761
G1 X22.747 Y24.67 E23.74299
G0 F3600 X23.03 Y24.953
G1 F1800 X23.587 Y24.453 E23.76789
G1 X24.437 Y23.866 E23.80224
G1 X24.483 Y23.839 E23.80402
G1 X25.147 Y23.495 E23.82889
G1 X25.844 Y23.225 E23.85375
G1 X26.673 Y22.992 E23.88239
G1 X27.765 Y22.79 E23.91933
G1 X27.794 Y22.787 E23.9203
G1 X28.514 Y22.75 E23.94428
G1 X91.492 Y22.751 E26.03893
G1 X92.212 Y22.788 E26.06291
G1 X92.241 Y22.791 E26.06388
G1 X93.341 Y22.995 E26.10109
G1 X93.794 Y23.117 E26.1167
G1 X94.505 Y23.35 E26.14158
G1 X95.187 Y23.657 E26.16646
G1 X95.563 Y23.866 E26.18076
G1 X96.187 Y24.279 E26.20565
G1 X96.97 Y24.953 E26.24001
G1 X97.297 Y25.28 E26.2554
G1 X97.797 Y25.837 E26.28029
G1 X98.384 Y26.687 E26.31465
G1 X98.411 Y26.733 E26.31642
G1 X98.755 Y27.397 E26.3413
G1 X99.025 Y28.094 E26.36616
G1 X99.258 Y28.923 E26.3948
G1 X99.454 Y29.962 E26.42996
G1 X99.457 Y29.989 E26.43087
G1 X99.5 Y30.762 E26.45662
G1 X99.499 Y119.242 E29.39947
G1 X99.462 Y119.962 E29.42345
G1 X99.459 Y119.991 E29.42442
G1 X99.255 Y121.091 E29.46163
G1 X99.133 Y121.544 E29.47724
G1 X98.9 Y122.255 E29.50212
G1 X98.593 Y122.937 E29.527
G1 X98.384 Y123.313 E29.54131
G1 X97.971 Y123.937 E29.56619
G1 X97.297 Y124.72 E29.60056
G1 X96.97 Y125.047 E29.61594
G1 X96.413 Y125.547 E29.64083
G1 X95.563 Y126.134 E29.67519
G1 X95.517 Y126.161 E29.67696
G1 X94.853 Y126.505 E29.70184
G1 X94.156 Y126.775 E29.7267
G1 X93.327 Y127.008 E29.75534
G1 X92.235 Y127.21 E29.79227
G1 X92.206 Y127.213 E29.79324
G1 X91.486 Y127.25 E29.81722
G1 X28.508 Y127.249 E31.91188
G1 X27.788 Y127.212 E31.93586
G1 X27.759 Y127.209 E31.93683
G1 X26.659 Y127.005 E31.97404
G1 X26.206 Y126.883 E31.98964
G1 X25.495 Y126.65 E32.01453
G1 X24.813 Y126.343 E32.0394
G1 X24.437 Y126.134 E32.05371
G1 X23.813 Y125.721 E32.0786
G1 X23.03 Y125.047 E32.11296
G1 X22.703 Y124.72 E32.12834
G1 X22.203 Y124.163 E32.15324
G1 X21.616 Y123.313 E32.18759
G1 X21.589 Y123.267 E32.18937
G1 X21.245 Y122.603 E32.21424
G1 X20.975 Y121.906 E32.2391
G1 X20.742 Y121.077 E32.26774
G1 X20.546 Y120.038 E32.30291
G1 X20.543 Y120.011 E32.30381
G1 X20.5 Y119.238 E32.32956
G1 X20.501 Y30.758 E35.27242
G1 X20.538 Y30.038 E35.2964
G1 X20.541 Y30.009 E35.29737
G1 X20.745 Y28.909 E35.33458
G1 X20.867 Y28.456 E35.35018
G1 X21.1 Y27.745 E35.37507
G1 X21.407 Y27.063 E35.39994
G1 X21.616 Y26.687 E35.41425
G1 X22.029 Y26.063 E35.43914
G1 X22.703 Y25.28 E35.4735
G1 X23.03 Y24.953 E35.48888
G0 F3600 X23.313 Y25.236
G1 F1800 X23.854 Y24.752 E35.51303
G1 X24.639 Y24.211 E35.54474
G1 X24.685 Y24.184 E35.54651
G1 X25.331 Y23.851 E35.57068
G1 X26.318 Y23.501 E35.60551
G1 X26.777 Y23.378 E35.62132
G1 X27.806 Y23.188 E35.65612
G1 X27.835 Y23.185 E35.65709
G1 X28.514 Y23.15 E35.6797
G1 X91.492 Y23.151 E37.77436
G1 X92.171 Y23.186 E37.79698
G1 X92.2 Y23.189 E37.79794
G1 X93.237 Y23.381 E37.83302
G1 X93.69 Y23.503 E37.84863
G1 X94.38 Y23.73 E37.87279
G1 X95.315 Y24.184 E37.90736
G1 X95.361 Y24.211 E37.90913
G1 X95.966 Y24.613 E37.93329
G1 X96.687 Y25.236 E37.96498
G1 X97.014 Y25.563 E37.98036
G1 X97.498 Y26.104 E38.00451
G1 X98.039 Y26.889 E38.03622
G1 X98.066 Y26.935 E38.03799
G1 X98.399 Y27.581 E38.06216
G1 X98.749 Y28.568 E38.09699
G1 X98.872 Y29.027 E38.1128
G1 X99.057 Y30.006 E38.14594
G1 X99.06 Y30.033 E38.14684
G1 X99.1 Y30.762 E38.17112
G1 X99.099 Y119.242 E41.11398
G1 X99.064 Y119.921 E41.13659
G1 X99.061 Y119.95 E41.13756
G1 X98.869 Y120.987 E41.17264
G1 X98.747 Y121.44 E41.18824
G1 X98.52 Y122.13 E41.2124
G1 X98.066 Y123.065 E41.24697
G1 X98.039 Y123.111 E41.24875
G1 X97.637 Y123.716 E41.27291
G1 X97.014 Y124.437 E41.3046
G1 X96.687 Y124.764 E41.31998
G1 X96.146 Y125.248 E41.34412
G1 X95.361 Y125.789 E41.37583
G1 X95.315 Y125.816 E41.37761
G1 X94.669 Y126.149 E41.40178
G1 X93.682 Y126.499 E41.43661
G1 X93.223 Y126.622 E41.45242
G1 X92.194 Y126.812 E41.48722
G1 X92.165 Y126.815 E41.48819
G1 X91.486 Y126.85 E41.5108
G1 X28.508 Y126.849 E43.60546
G1 X27.829 Y126.814 E43.62807
G1 X27.8 Y126.811 E43.62904
G1 X26.763 Y126.619 E43.66412
G1 X26.31 Y126.497 E43.67972
G1 X25.62 Y126.27 E43.70388
G1 X24.685 Y125.816 E43.73845
G1 X24.639 Y125.789 E43.74023
G1 X24.034 Y125.387 E43.76439
G1 X23.313 Y124.764 E43.79608
G1 X22.986 Y124.437 E43.81146
G1 X22.502 Y123.896 E43.8356
G1 X21.961 Y123.111 E43.86731
G1 X21.934 Y123.065 E43.86909
G1 X21.601 Y122.419 E43.89326
G1 X21.251 Y121.432 E43.92809
G1 X21.128 Y120.973 E43.9439
G1 X20.943 Y119.994 E43.97703
G1 X20.94 Y119.967 E43.97794
G1 X20.9 Y119.238 E44.00222
G1 X20.901 Y30.758 E46.94508
G1 X20.936 Y30.079 E46.96769
G1 X20.939 Y30.05 E46.96866
G1 X21.131 Y29.013 E47.00374
G1 X21.253 Y28.56 E47.01934
G1 X21.48 Y27.87 E47.0435
G1 X21.934 Y26.935 E47.07807
G1 X21.961 Y26.889 E47.07984
G1 X22.363 Y26.284 E47.104
G1 X22.986 Y25.563 E47.1357
G1 X23.313 Y25.236 E47.15108
G0 F3600 X23.596 Y25.519
G1 F1800 X24.121 Y25.05 E47.17449
G1 X24.842 Y24.556 E47.20356
G1 X24.888 Y24.529 E47.20534
G1 X25.514 Y24.208 E47.22873
G1 X26.421 Y23.887 E47.26074
G1 X26.88 Y23.764 E47.27654
G1 X27.847 Y23.586 E47.30924
G1 X27.876 Y23.583 E47.31021
G1 X28.514 Y23.55 E47.33146
G1 X91.492 Y23.551 E49.42612
G1 X92.13 Y23.584 E49.44737
G1 X92.159 Y23.587 E49.44834
G1 X93.133 Y23.767 E49.48128
G1 X93.586 Y23.889 E49.49688
G1 X94.255 Y24.111 E49.52033
G1 X95.112 Y24.529 E49.55204
G1 X95.158 Y24.556 E49.55382
G1 X95.744 Y24.946 E49.57723
G1 X96.404 Y25.519 E49.6063
G1 X96.731 Y25.846 E49.62168
G1 X97.2 Y26.371 E49.64509
G1 X97.694 Y27.092 E49.67416
G1 X97.721 Y27.138 E49.67594
G1 X98.042 Y27.764 E49.69934
G1 X98.363 Y28.671 E49.73134
G1 X98.486 Y29.13 E49.74714
G1 X98.659 Y30.05 E49.77828
G1 X98.662 Y30.077 E49.77918
G1 X98.7 Y30.762 E49.802
G1 X98.699 Y119.242 E52.74486
G1 X98.666 Y119.88 E52.7661
G1 X98.663 Y119.909 E52.76707
G1 X98.483 Y120.883 E52.80002
G1 X98.361 Y121.336 E52.81562
G1 X98.139 Y122.005 E52.83907
G1 X97.721 Y122.862 E52.87078
G1 X97.694 Y122.908 E52.87255
G1 X97.304 Y123.494 E52.89597
G1 X96.731 Y124.154 E52.92504
G1 X96.404 Y124.481 E52.94042
G1 X95.879 Y124.95 E52.96383
G1 X95.158 Y125.444 E52.9929
G1 X95.112 Y125.471 E52.99467
G1 X94.486 Y125.792 E53.01807
G1 X93.579 Y126.113 E53.05007
G1 X93.12 Y126.236 E53.06588
G1 X92.153 Y126.414 E53.09858
G1 X92.124 Y126.417 E53.09955
G1 X91.486 Y126.45 E53.1208
G1 X28.508 Y126.449 E55.21546
G1 X27.87 Y126.416 E55.2367
G1 X27.841 Y126.413 E55.23767
G1 X26.867 Y126.233 E55.27062
G1 X26.414 Y126.111 E55.28622
G1 X25.745 Y125.889 E55.30967
G1 X24.888 Y125.471 E55.34138
G1 X24.842 Y125.444 E55.34315
G1 X24.256 Y125.054 E55.36657
G1 X23.596 Y124.481 E55.39564
G1 X23.269 Y124.154 E55.41102
G1 X22.8 Y123.629 E55.43443
G1 X22.306 Y122.908 E55.4635
G1 X22.279 Y122.862 E55.46528
G1 X21.958 Y122.236 E55.48867
G1 X21.637 Y121.329 E55.52067
G1 X21.514 Y120.87 E55.53648
G1 X21.341 Y119.95 E55.56762
G1 X21.338 Y119.923 E55.56852
G1 X21.3 Y119.238 E55.59134
G1 X21.301 Y30.758 E58.53419
G1 X21.334 Y30.12 E58.55544
G1 X21.337 Y30.091 E58.55641
G1 X21.517 Y29.117 E58.58936
G1 X21.639 Y28.664 E58.60496
G1 X21.861 Y27.995 E58.6284
G1 X22.279 Y27.138 E58.66012
G1 X22.306 Y27.092 E58.66189
G1 X22.696 Y26.506 E58.6853
G1 X23.269 Y25.846 E58.71437
G1 X23.596 Y25.519 E58.72976
G0 F3600 X23.879 Y25.802
G1 F1800 X24.388 Y25.349 E58.75242
G1 X25.044 Y24.901 E58.77884
G1 X25.09 Y24.874 E58.78061
G1 X25.696 Y24.564 E58.80325
G1 X26.525 Y24.274 E58.83246
G1 X26.984 Y24.151 E58.84827
G1 X27.888 Y23.984 E58.87885
G1 X27.917 Y23.981 E58.87981
G1 X28.514 Y23.95 E58.8997
G1 X91.492 Y23.951 E60.99435
G1 X92.089 Y23.982 E61.01424
G1 X92.118 Y23.985 E61.01521
G1 X93.029 Y24.154 E61.04602
G1 X93.482 Y24.276 E61.06163
G1 X94.128 Y24.491 E61.08427
G1 X94.91 Y24.874 E61.11323
G1 X94.956 Y24.901 E61.11501
G1 X95.522 Y25.28 E61.13766
G1 X96.121 Y25.802 E61.16409
G1 X96.448 Y26.129 E61.17947
G1 X96.901 Y26.638 E61.20213
G1 X97.349 Y27.294 E61.22856
G1 X97.376 Y27.34 E61.23033
G1 X97.686 Y27.946 E61.25297
G1 X97.976 Y28.775 E61.28218
G1 X98.099 Y29.234 E61.29799
G1 X98.262 Y30.094 E61.3271
G1 X98.265 Y30.121 E61.328
G1 X98.3 Y30.762 E61.34935
G1 X98.299 Y119.242 E64.29221
G1 X98.268 Y119.839 E64.31209
G1 X98.265 Y119.868 E64.31306
G1 X98.096 Y120.779 E64.34388
G1 X97.974 Y121.232 E64.35948
G1 X97.759 Y121.878 E64.38213
G1 X97.376 Y122.66 E64.41109
G1 X97.349 Y122.706 E64.41286
G1 X96.97 Y123.272 E64.43552
G1 X96.448 Y123.871 E64.46195
G1 X96.121 Y124.198 E64.47733
G1 X95.612 Y124.651 E64.49999
G1 X94.956 Y125.099 E64.52641
G1 X94.91 Y125.126 E64.52819
G1 X94.304 Y125.436 E64.55083
G1 X93.475 Y125.726 E64.58004
G1 X93.016 Y125.849 E64.59584
G1 X92.112 Y126.016 E64.62642
G1 X92.083 Y126.019 E64.62739
G1 X91.486 Y126.05 E64.64727
G1 X28.508 Y126.049 E66.74193
G1 X27.911 Y126.018 E66.76181
G1 X27.882 Y126.015 E66.76278
G1 X26.971 Y125.846 E66.7936
G1 X26.518 Y125.724 E66.8092
G1 X25.872 Y125.509 E66.83185
G1 X25.09 Y125.126 E66.86081
G1 X25.044 Y125.099 E66.86258
G1 X24.478 Y124.72 E66.88524
G1 X23.879 Y124.198 E66.91166
G1 X23.552 Y123.871 E66.92704
G1 X23.099 Y123.362 E66.94971
G1 X22.651 Y122.706 E66.97613
G1 X22.624 Y122.66 E66.9779
G1 X22.314 Y122.054 E67.00054
G1 X22.024 Y121.225 E67.02975
G1 X21.901 Y120.766 E67.04556
G1 X21.738 Y119.906 E67.07467
G1 X21.735 Y119.879 E67.07557
G1 X21.7 Y119.238 E67.09693
G1 X21.701 Y30.758 E70.03978
G1 X21.732 Y30.161 E70.05967
G1 X21.735 Y30.132 E70.06064
G1 X21.904 Y29.221 E70.09145
G1 X22.026 Y28.768 E70.10706
G1 X22.241 Y28.122 E70.1297
G1 X22.624 Y27.34 E70.15866
G1 X22.651 Y27.294 E70.16044
G1 X23.03 Y26.728 E70.18309
G1 X23.552 Y26.129 E70.20952
G1 X23.879 Y25.802 E70.2249
G0 F3600 X24.162 Y26.085
G1 F1800 X24.654 Y25.649 E70.24676
G1 X25.247 Y25.246 E70.27061
G1 X25.293 Y25.219 E70.27239
G1 X25.878 Y24.921 E70.29422
G1 X26.628 Y24.66 E70.32063
G1 X27.087 Y24.537 E70.33644
G1 X27.929 Y24.382 E70.36491
