;FLAVOR:Marlin
;TIME:6222
;Filament used: 5.03177m
;Layer height: 0.15
;MINX:69.7
;MINY:56.95
;MINZ:0.2
;MAXX:150.3
;MAXY:163.05
;MAXZ:8.45
;Generated with Cura_SteamEngine 4.12.0
M140 S60
M105
M190 S60
M104 S200
M105
M109 S200
M82 ;absolute extrusion mode
; -- START GCODE --
G21                     ;set units to millimetres
G90                     ;set to absolute positioning
M106 S0                 ;set fan speed to zero (turned off)
G28                     ;home all axis
M420 S1                 ;turn on mesh bed levelling if enabled in firmware
G92 E0                  ;zero the extruded length
G1 Z1 F1000             ;move up slightly
G1 X60.0 Z0 E9.0 F1000.0;intro line
G1 X100.0 E21.5 F1000.0 ;continue line
G92 E0                  ;zero the extruded length again
; -- end of START GCODE --
G92 E0
G92 E0
G1 F3000 E-5
;LAYER_COUNT:56
;LAYER:0
M107
G0 F3600 X71.858 Y60.009 Z0.2
;TYPE:SKIRT
G1 F3000 E0
G1 F1800 X72.465 Y59.388 E0.02888
G1 X73.051 Y58.858 E0.05516
G1 X73.687 Y58.391 E0.08141
G1 X74.078 Y58.149 E0.0967
G1 X74.778 Y57.784 E0.12296
G1 X75.512 Y57.492 E0.14923
G1 X76.007 Y57.342 E0.16643
G1 X76.466 Y57.219 E0.18224
G1 X77.238 Y57.053 E0.2085
G1 X77.711 Y56.991 E0.22437
G1 X78.514 Y56.95 E0.25111
G1 X141.492 Y56.951 E2.34577
G1 X142.295 Y56.992 E2.37251
G1 X142.324 Y56.995 E2.37348
G1 X143.104 Y57.116 E2.39973
G1 X144.002 Y57.344 E2.43055
G1 X144.754 Y57.588 E2.45684
G1 X145.476 Y57.906 E2.48308
G1 X145.922 Y58.149 E2.49998
G1 X145.968 Y58.176 E2.50175
G1 X146.628 Y58.61 E2.52802
G1 X147.241 Y59.108 E2.55429
G1 X147.862 Y59.715 E2.58318
G1 X148.392 Y60.301 E2.60945
G1 X148.859 Y60.937 E2.6357
G1 X149.101 Y61.328 E2.65099
G1 X149.466 Y62.028 E2.67725
G1 X149.758 Y62.762 E2.70352
G1 X149.908 Y63.257 E2.72073
G1 X150.031 Y63.716 E2.73653
G1 X150.249 Y64.874 E2.77572
G1 X150.252 Y64.901 E2.77663
G1 X150.3 Y65.762 E2.80531
G1 X150.299 Y154.242 E5.74817
G1 X150.258 Y155.045 E5.77491
G1 X150.255 Y155.074 E5.77588
G1 X150.134 Y155.854 E5.80213
G1 X149.906 Y156.752 E5.83295
G1 X149.662 Y157.504 E5.85924
G1 X149.344 Y158.226 E5.88548
G1 X149.101 Y158.672 E5.90237
G1 X149.074 Y158.718 E5.90415
G1 X148.64 Y159.378 E5.93042
G1 X148.142 Y159.991 E5.95669
G1 X147.535 Y160.612 E5.98557
G1 X146.949 Y161.142 E6.01185
G1 X146.313 Y161.609 E6.03809
G1 X145.922 Y161.851 E6.05339
G1 X145.222 Y162.216 E6.07965
G1 X144.488 Y162.508 E6.10592
G1 X143.993 Y162.658 E6.12312
G1 X143.534 Y162.781 E6.13893
G1 X142.762 Y162.947 E6.16519
G1 X142.289 Y163.009 E6.18106
G1 X141.486 Y163.05 E6.2078
G1 X78.508 Y163.049 E8.30246
G1 X77.705 Y163.008 E8.3292
G1 X77.676 Y163.005 E8.33017
G1 X76.896 Y162.884 E8.35642
G1 X75.998 Y162.656 E8.38724
G1 X75.246 Y162.412 E8.41353
G1 X74.524 Y162.094 E8.43977
G1 X74.078 Y161.851 E8.45667
G1 X74.032 Y161.824 E8.45844
G1 X73.372 Y161.39 E8.48471
G1 X72.759 Y160.892 E8.51098
G1 X72.138 Y160.285 E8.53986
G1 X71.608 Y159.699 E8.56614
G1 X71.141 Y159.063 E8.59239
G1 X70.899 Y158.672 E8.60768
G1 X70.534 Y157.972 E8.63394
G1 X70.242 Y157.238 E8.66021
G1 X70.092 Y156.743 E8.67742
G1 X69.969 Y156.284 E8.69322
G1 X69.751 Y155.126 E8.73241
G1 X69.748 Y155.099 E8.73332
G1 X69.7 Y154.238 E8.762
G1 X69.701 Y65.758 E11.70485
G1 X69.742 Y64.955 E11.7316
G1 X69.745 Y64.926 E11.73257
G1 X69.866 Y64.146 E11.75882
G1 X70.094 Y63.248 E11.78964
G1 X70.338 Y62.496 E11.81593
G1 X70.656 Y61.774 E11.84217
G1 X70.899 Y61.328 E11.85906
G1 X70.926 Y61.282 E11.86084
G1 X71.36 Y60.622 E11.88711
G1 X71.858 Y60.009 E11.91338
G0 F3600 X72.42 Y59.997
G1 F1800 X72.747 Y59.67 E11.92876
G1 X73.319 Y59.156 E11.95434
G1 X74.234 Y58.521 E11.99138
G1 X74.28 Y58.494 E11.99315
G1 X74.963 Y58.14 E12.01874
G1 X75.679 Y57.858 E12.04434
G1 X76.57 Y57.605 E12.07514
G1 X77.322 Y57.445 E12.10071
G1 X77.753 Y57.389 E12.11517
G1 X78.514 Y57.35 E12.14051
G1 X141.492 Y57.351 E14.23517
G1 X142.253 Y57.39 E14.26051
G1 X142.282 Y57.393 E14.26148
G1 X143.042 Y57.512 E14.28707
G1 X143.898 Y57.731 E14.31646
G1 X144.63 Y57.969 E14.34206
G1 X145.332 Y58.282 E14.36762
G1 X145.766 Y58.521 E14.3841
G1 X146.408 Y58.944 E14.40967
G1 X147.253 Y59.67 E14.44673
G1 X147.58 Y59.997 E14.46211
G1 X148.094 Y60.569 E14.48768
G1 X148.729 Y61.484 E14.52473
G1 X148.756 Y61.53 E14.5265
G1 X149.11 Y62.213 E14.55209
G1 X149.392 Y62.929 E14.57768
G1 X149.645 Y63.82 E14.60849
G1 X149.852 Y64.918 E14.64565
G1 X149.855 Y64.945 E14.64656
G1 X149.9 Y65.762 E14.67377
G1 X149.899 Y154.242 E17.61663
G1 X149.86 Y155.003 E17.64197
G1 X149.857 Y155.032 E17.64294
G1 X149.738 Y155.792 E17.66853
G1 X149.519 Y156.648 E17.69792
G1 X149.281 Y157.38 E17.72352
G1 X148.968 Y158.082 E17.74908
G1 X148.729 Y158.516 E17.76556
G1 X148.306 Y159.158 E17.79113
G1 X147.58 Y160.003 E17.82818
G1 X147.253 Y160.33 E17.84357
G1 X146.681 Y160.844 E17.86914
G1 X145.766 Y161.479 E17.90619
G1 X145.72 Y161.506 E17.90796
G1 X145.037 Y161.86 E17.93355
G1 X144.321 Y162.142 E17.95914
G1 X143.43 Y162.395 E17.98995
G1 X142.678 Y162.555 E18.01552
G1 X142.247 Y162.611 E18.02998
G1 X141.486 Y162.65 E18.05532
G1 X78.508 Y162.649 E20.14998
G1 X77.747 Y162.61 E20.17532
G1 X77.718 Y162.607 E20.17629
G1 X76.958 Y162.488 E20.20188
G1 X76.102 Y162.269 E20.23126
G1 X75.37 Y162.031 E20.25686
G1 X74.668 Y161.718 E20.28243
G1 X74.234 Y161.479 E20.29891
G1 X73.592 Y161.056 E20.32448
G1 X72.747 Y160.33 E20.36153
G1 X72.42 Y160.003 E20.37691
G1 X71.906 Y159.431 E20.40249
G1 X71.271 Y158.516 E20.43953
G1 X71.244 Y158.47 E20.44131
G1 X70.89 Y157.787 E20.4669
G1 X70.608 Y157.071 E20.49249
G1 X70.355 Y156.18 E20.5233
G1 X70.148 Y155.082 E20.56046
G1 X70.145 Y155.055 E20.56136
G1 X70.1 Y154.238 E20.58858
G1 X70.101 Y65.758 E23.53143
G1 X70.14 Y64.997 E23.55678
G1 X70.143 Y64.968 E23.55775
G1 X70.262 Y64.208 E23.58333
G1 X70.481 Y63.352 E23.61272
G1 X70.719 Y62.62 E23.63832
G1 X71.032 Y61.918 E23.66389
G1 X71.271 Y61.484 E23.68037
G1 X71.694 Y60.842 E23.70594
G1 X72.42 Y59.997 E23.74299
G0 F3600 X72.703 Y60.28
G1 F1800 X73.03 Y59.953 E23.75837
G1 X73.587 Y59.453 E23.78327
G1 X74.437 Y58.866 E23.81762
G1 X74.483 Y58.839 E23.8194
G1 X75.147 Y58.495 E23.84427
G1 X75.844 Y58.225 E23.86913
G1 X76.673 Y57.992 E23.89777
G1 X77.765 Y57.79 E23.93471
G1 X77.794 Y57.787 E23.93568
G1 X78.514 Y57.75 E23.95966
G1 X141.492 Y57.751 E26.05431
G1 X142.212 Y57.788 E26.07829
G1 X142.241 Y57.791 E26.07926
G1 X143.341 Y57.995 E26.11647
G1 X143.794 Y58.117 E26.13208
G1 X144.505 Y58.35 E26.15696
G1 X145.187 Y58.657 E26.18184
G1 X145.563 Y58.866 E26.19615
G1 X146.187 Y59.279 E26.22103
G1 X146.97 Y59.953 E26.2554
G1 X147.297 Y60.28 E26.27078
G1 X147.797 Y60.837 E26.29567
G1 X148.384 Y61.687 E26.33003
G1 X148.411 Y61.733 E26.3318
G1 X148.755 Y62.397 E26.35668
G1 X149.025 Y63.094 E26.38154
G1 X149.258 Y63.923 E26.41018
G1 X149.454 Y64.962 E26.44534
G1 X149.457 Y64.989 E26.44625
G1 X149.5 Y65.762 E26.472
G1 X149.499 Y154.242 E29.41485
G1 X149.462 Y154.962 E29.43883
G1 X149.459 Y154.991 E29.4398
G1 X149.255 Y156.091 E29.47701
G1 X149.133 Y156.544 E29.49262
G1 X148.9 Y157.255 E29.5175
G1 X148.593 Y157.937 E29.54238
G1 X148.384 Y158.313 E29.55669
G1 X147.971 Y158.937 E29.58157
G1 X147.297 Y159.72 E29.61594
G1 X146.97 Y160.047 E29.63132
G1 X146.413 Y160.547 E29.65621
G1 X145.563 Y161.134 E29.69057
G1 X145.517 Y161.161 E29.69234
G1 X144.853 Y161.505 E29.71722
G1 X144.156 Y161.775 E29.74208
G1 X143.327 Y162.008 E29.77072
G1 X142.235 Y162.21 E29.80766
G1 X142.206 Y162.213 E29.80862
G1 X141.486 Y162.25 E29.8326
G1 X78.508 Y162.249 E31.92726
G1 X77.788 Y162.212 E31.95124
G1 X77.759 Y162.209 E31.95221
G1 X76.659 Y162.005 E31.98942
G1 X76.206 Y161.883 E32.00502
G1 X75.495 Y161.65 E32.02991
G1 X74.813 Y161.343 E32.05478
G1 X74.437 Y161.134 E32.06909
G1 X73.813 Y160.721 E32.09398
G1 X73.03 Y160.047 E32.12834
G1 X72.703 Y159.72 E32.14372
G1 X72.203 Y159.163 E32.16862
G1 X71.616 Y158.313 E32.20298
G1 X71.589 Y158.267 E32.20475
G1 X71.245 Y157.603 E32.22962
G1 X70.975 Y156.906 E32.25448
G1 X70.742 Y156.077 E32.28312
G1 X70.546 Y155.038 E32.31829
G1 X70.543 Y155.011 E32.31919
G1 X70.5 Y154.238 E32.34494
G1 X70.501 Y65.758 E35.2878
G1 X70.538 Y65.038 E35.31178
G1 X70.541 Y65.009 E35.31275
G1 X70.745 Y63.909 E35.34996
G1 X70.867 Y63.456 E35.36556
G1 X71.1 Y62.745 E35.39045
G1 X71.407 Y62.063 E35.41532
G1 X71.616 Y61.687 E35.42963
G1 X72.029 Y61.063 E35.45452
G1 X72.703 Y60.28 E35.48888
G0 F3600 X72.986 Y60.563
G1 F1800 X73.313 Y60.236 E35.50426
G1 X73.854 Y59.752 E35.52841
G1 X74.639 Y59.211 E35.56012
G1 X74.685 Y59.184 E35.56189
G1 X75.331 Y58.851 E35.58606
G1 X76.318 Y58.501 E35.62089
G1 X76.777 Y58.378 E35.6367
G1 X77.806 Y58.188 E35.6715
G1 X77.835 Y58.185 E35.67247
G1 X78.514 Y58.15 E35.69509
G1 X141.492 Y58.151 E37.78974
G1 X142.171 Y58.186 E37.81236
G1 X142.2 Y58.189 E37.81333
G1 X143.237 Y58.381 E37.8484
G1 X143.69 Y58.503 E37.86401
G1 X144.38 Y58.73 E37.88817
G1 X145.315 Y59.184 E37.92274
G1 X145.361 Y59.211 E37.92451
G1 X145.966 Y59.613 E37.94867
G1 X146.687 Y60.236 E37.98036
G1 X147.014 Y60.563 E37.99574
G1 X147.498 Y61.104 E38.01989
G1 X148.039 Y61.889 E38.0516
G1 X148.066 Y61.935 E38.05337
G1 X148.399 Y62.581 E38.07754
G1 X148.749 Y63.568 E38.11237
G1 X148.872 Y64.027 E38.12818
G1 X149.057 Y65.006 E38.16132
G1 X149.06 Y65.033 E38.16222
G1 X149.1 Y65.762 E38.1865
G1 X149.099 Y154.242 E41.12936
G1 X149.064 Y154.921 E41.15197
G1 X149.061 Y154.95 E41.15294
G1 X148.869 Y155.987 E41.18802
G1 X148.747 Y156.44 E41.20362
G1 X148.52 Y157.13 E41.22778
G1 X148.066 Y158.065 E41.26235
G1 X148.039 Y158.111 E41.26413
G1 X147.637 Y158.716 E41.28829
G1 X147.014 Y159.437 E41.31998
G1 X146.687 Y159.764 E41.33536
G1 X146.146 Y160.248 E41.35951
G1 X145.361 Y160.789 E41.39121
G1 X145.315 Y160.816 E41.39299
G1 X144.669 Y161.149 E41.41716
G1 X143.682 Y161.499 E41.45199
G1 X143.223 Y161.622 E41.4678
G1 X142.194 Y161.812 E41.5026
G1 X142.165 Y161.815 E41.50357
G1 X141.486 Y161.85 E41.52618
G1 X78.508 Y161.849 E43.62084
G1 X77.829 Y161.814 E43.64345
G1 X77.8 Y161.811 E43.64442
G1 X76.763 Y161.619 E43.6795
G1 X76.31 Y161.497 E43.6951
G1 X75.62 Y161.27 E43.71926
G1 X74.685 Y160.816 E43.75383
G1 X74.639 Y160.789 E43.75561
G1 X74.034 Y160.387 E43.77977
G1 X73.313 Y159.764 E43.81146
G1 X72.986 Y159.437 E43.82684
G1 X72.502 Y158.896 E43.85099
G1 X71.961 Y158.111 E43.88269
G1 X71.934 Y158.065 E43.88447
G1 X71.601 Y157.419 E43.90864
G1 X71.251 Y156.432 E43.94347
G1 X71.128 Y155.973 E43.95928
G1 X70.943 Y154.994 E43.99241
G1 X70.94 Y154.967 E43.99332
G1 X70.9 Y154.238 E44.0176
G1 X70.901 Y65.758 E46.96046
G1 X70.936 Y65.079 E46.98307
G1 X70.939 Y65.05 E46.98404
G1 X71.131 Y64.013 E47.01912
G1 X71.253 Y63.56 E47.03472
G1 X71.48 Y62.87 E47.05888
G1 X71.934 Y61.935 E47.09345
G1 X71.961 Y61.889 E47.09523
G1 X72.363 Y61.284 E47.11939
G1 X72.986 Y60.563 E47.15108
G0 F3600 X73.269 Y60.846
G1 F1800 X73.596 Y60.519 E47.16646
G1 X74.121 Y60.05 E47.18987
G1 X74.842 Y59.556 E47.21894
G1 X74.888 Y59.529 E47.22072
G1 X75.514 Y59.208 E47.24412
G1 X76.421 Y58.887 E47.27612
G1 X76.88 Y58.764 E47.29192
G1 X77.847 Y58.586 E47.32462
G1 X77.876 Y58.583 E47.32559
G1 X78.514 Y58.55 E47.34684
G1 X141.492 Y58.551 E49.4415
G1 X142.13 Y58.584 E49.46275
G1 X142.159 Y58.587 E49.46372
G1 X143.133 Y58.767 E49.49666
G1 X143.586 Y58.889 E49.51226
G1 X144.255 Y59.111 E49.53571
G1 X145.112 Y59.529 E49.56742
G1 X145.158 Y59.556 E49.5692
G1 X145.744 Y59.946 E49.59261
G1 X146.404 Y60.519 E49.62168
G1 X146.731 Y60.846 E49.63706
G1 X147.2 Y61.371 E49.66047
G1 X147.694 Y62.092 E49.68954
G1 X147.721 Y62.138 E49.69132
G1 X148.042 Y62.764 E49.71472
G1 X148.363 Y63.671 E49.74672
G1 X148.486 Y64.13 E49.76252
G1 X148.659 Y65.05 E49.79366
G1 X148.662 Y65.077 E49.79456
G1 X148.7 Y65.762 E49.81738
G1 X148.699 Y154.242 E52.76024
G1 X148.666 Y154.88 E52.78148
G1 X148.663 Y154.909 E52.78245
G1 X148.483 Y155.883 E52.8154
G1 X148.361 Y156.336 E52.831
G1 X148.139 Y157.005 E52.85445
G1 X147.721 Y157.862 E52.88616
G1 X147.694 Y157.908 E52.88793
G1 X147.304 Y158.494 E52.91135
G1 X146.731 Y159.154 E52.94042
G1 X146.404 Y159.481 E52.9558
G1 X145.879 Y159.95 E52.97921
G1 X145.158 Y160.444 E53.00828
G1 X145.112 Y160.471 E53.01006
G1 X144.486 Y160.792 E53.03345
G1 X143.579 Y161.113 E53.06545
G1 X143.12 Y161.236 E53.08126
G1 X142.153 Y161.414 E53.11396
G1 X142.124 Y161.417 E53.11493
G1 X141.486 Y161.45 E53.13618
G1 X78.508 Y161.449 E55.23084
G1 X77.87 Y161.416 E55.25209
G1 X77.841 Y161.413 E55.25306
G1 X76.867 Y161.233 E55.286
G1 X76.414 Y161.111 E55.3016
G1 X75.745 Y160.889 E55.32505
G1 X74.888 Y160.471 E55.35676
G1 X74.842 Y160.444 E55.35853
G1 X74.256 Y160.054 E55.38195
G1 X73.596 Y159.481 E55.41102
G1 X73.269 Y159.154 E55.4264
G1 X72.8 Y158.629 E55.44981
G1 X72.306 Y157.908 E55.47888
G1 X72.279 Y157.862 E55.48066
G1 X71.958 Y157.236 E55.50406
G1 X71.637 Y156.329 E55.53606
G1 X71.514 Y155.87 E55.55186
G1 X71.341 Y154.95 E55.583
G1 X71.338 Y154.923 E55.5839
G1 X71.3 Y154.238 E55.60672
G1 X71.301 Y65.758 E58.54957
G1 X71.334 Y65.12 E58.57082
G1 X71.337 Y65.091 E58.57179
G1 X71.517 Y64.117 E58.60474
G1 X71.639 Y63.664 E58.62034
G1 X71.861 Y62.995 E58.64378
G1 X72.279 Y62.138 E58.6755
G1 X72.306 Y62.092 E58.67727
G1 X72.696 Y61.506 E58.70068
G1 X73.269 Y60.846 E58.72976
G0 F3600 X73.552 Y61.129
G1 F1800 X73.879 Y60.802 E58.74514
G1 X74.388 Y60.349 E58.7678
G1 X75.044 Y59.901 E58.79422
G1 X75.09 Y59.874 E58.79599
G1 X75.696 Y59.564 E58.81863
G1 X76.525 Y59.274 E58.84785
G1 X76.984 Y59.151 E58.86365
G1 X77.888 Y58.984 E58.89423
G1 X77.917 Y58.981 E58.8952
G1 X78.514 Y58.95 E58.91508
G1 X141.492 Y58.951 E61.00974
G1 X142.089 Y58.982 E61.02962
G1 X142.118 Y58.985 E61.03059
G1 X143.029 Y59.154 E61.06141
G1 X143.482 Y59.276 E61.07701
G1 X144.128 Y59.491 E61.09965
G1 X144.91 Y59.874 E61.12862
G1 X144.956 Y59.901 E61.13039
G1 X145.522 Y60.28 E61.15305
G1 X146.121 Y60.802 E61.17947
G1 X146.448 Y61.129 E61.19485
G1 X146.901 Y61.638 E61.21752
G1 X147.349 Y62.294 E61.24394
G1 X147.376 Y62.34 E61.24571
G1 X147.686 Y62.946 E61.26835
G1 X147.976 Y63.775 E61.29756
G1 X148.099 Y64.234 E61.31337
G1 X148.262 Y65.094 E61.34248
G1 X148.265 Y65.121 E61.34338
G1 X148.3 Y65.762 E61.36473
G1 X148.299 Y154.242 E64.30759
G1 X148.268 Y154.839 E64.32747
G1 X148.265 Y154.868 E64.32844
G1 X148.096 Y155.779 E64.35926
G1 X147.974 Y156.232 E64.37487
G1 X147.759 Y156.878 E64.39751
G1 X147.376 Y157.66 E64.42647
G1 X147.349 Y157.706 E64.42825
G1 X146.97 Y158.272 E64.4509
G1 X146.448 Y158.871 E64.47733
G1 X146.121 Y159.198 E64.49271
G1 X145.612 Y159.651 E64.51537
G1 X144.956 Y160.099 E64.54179
G1 X144.91 Y160.126 E64.54357
G1 X144.304 Y160.436 E64.56621
G1 X143.475 Y160.726 E64.59542
G1 X143.016 Y160.849 E64.61122
G1 X142.112 Y161.016 E64.6418
G1 X142.083 Y161.019 E64.64277
G1 X141.486 Y161.05 E64.66265
G1 X78.508 Y161.049 E66.75731
G1 X77.911 Y161.018 E66.77719
G1 X77.882 Y161.015 E66.77816
G1 X76.971 Y160.846 E66.80898
G1 X76.518 Y160.724 E66.82458
G1 X75.872 Y160.509 E66.84723
G1 X75.09 Y160.126 E66.87619
G1 X75.044 Y160.099 E66.87796
G1 X74.478 Y159.72 E66.90062
G1 X73.879 Y159.198 E66.92704
G1 X73.552 Y158.871 E66.94243
G1 X73.099 Y158.362 E66.96509
G1 X72.651 Y157.706 E66.99151
G1 X72.624 Y157.66 E66.99328
G1 X72.314 Y157.054 E67.01592
G1 X72.024 Y156.225 E67.04513
G1 X71.901 Y155.766 E67.06094
G1 X71.738 Y154.906 E67.09005
G1 X71.735 Y154.879 E67.09096
G1 X71.7 Y154.238 E67.11231
G1 X71.701 Y65.758 E70.05516
G1 X71.732 Y65.161 E70.07505
G1 X71.735 Y65.132 E70.07602
G1 X71.904 Y64.221 E70.10683
G1 X72.026 Y63.768 E70.12244
G1 X72.241 Y63.122 E70.14508
G1 X72.624 Y62.34 E70.17404
G1 X72.651 Y62.294 E70.17582
G1 X73.03 Y61.728 E70.19847
G1 X73.552 Y61.129 E70.2249
