;FLAVOR:Marlin
;TIME:15658
;Filament used: 13.0263m
;Layer height: 0.15
;MINX:24.108
;MINY:24.355
;MINZ:0.2
;MAXX:195.518
;MAXY:195.297
;MAXZ:5.45
;POSTPROCESSED
;Generated with Cura_SteamEngine 4.12.0
M140 S60
M105
M190 S60
M104 S200
M105
M109 S200
M82 ;absolute extrusion mode
; -- START GCODE --
G21                     ;set units to millimetres
G90                     ;set to absolute positioning
M106 S0                 ;set fan speed to zero (turned off)
G28                     ;home all axis
M420 S1                 ;turn on mesh bed levelling if enabled in firmware
G92 E0                  ;zero the extruded length
G1 Z1 F1000             ;move up slightly
G1 X60.0 Z0 E9.0 F1000.0;intro line
G1 X100.0 E21.5 F1000.0 ;continue line
G92 E0                  ;zero the extruded length again
; -- end of START GCODE --
G92 E0
G92 E0
G1 F3000 E-5
;LAYER_COUNT:36
;LAYER:0
M107
G0 F3600 X26.873 Y26.793 Z0.2
;TYPE:SKIRT
G1 F3000 E0
G1 F1800 X27.459 Y26.263 E0.02628
G1 X28.095 Y25.796 E0.05252
G1 X28.486 Y25.554 E0.06782
G1 X29.186 Y25.189 E0.09407
G1 X29.92 Y24.897 E0.12035
G1 X30.415 Y24.747 E0.13755
G1 X30.874 Y24.624 E0.15336
G1 X31.646 Y24.458 E0.17962
G1 X32.119 Y24.396 E0.19549
G1 X32.922 Y24.355 E0.22223
G1 X58.164 Y24.355 E1.06178
G1 X58.953 Y24.395 E1.08806
G1 X59.733 Y24.514 E1.1143
G1 X60.498 Y24.712 E1.14058
G1 X61.238 Y24.986 E1.16683
G1 X61.947 Y25.334 E1.1931
G1 X62.22 Y25.504 E1.20379
G1 X62.538 Y25.309 E1.2162
G1 X63.25 Y24.966 E1.24249
G1 X63.992 Y24.697 E1.26874
G1 X64.758 Y24.504 E1.29501
G1 X65.539 Y24.39 E1.32126
G1 X66.276 Y24.355 E1.3458
G1 X66.541 Y24.355 E1.35462
G1 X67.33 Y24.395 E1.38089
G1 X68.11 Y24.514 E1.40714
G1 X68.875 Y24.712 E1.43342
G1 X69.615 Y24.986 E1.45966
G1 X70.324 Y25.334 E1.48593
G1 X70.596 Y25.503 E1.49658
G1 X71.039 Y25.242 E1.51368
G1 X71.757 Y24.912 E1.53997
G1 X72.504 Y24.657 E1.56622
G1 X73.273 Y24.478 E1.59248
G1 X74.057 Y24.378 E1.61877
G1 X74.652 Y24.355 E1.63857
G1 X99.894 Y24.355 E2.47813
G1 X100.697 Y24.396 E2.50487
G1 X100.726 Y24.399 E2.50584
G1 X101.506 Y24.52 E2.53209
G1 X102.401 Y24.747 E2.5628
G1 X103.152 Y24.99 E2.58905
G1 X103.875 Y25.307 E2.61531
G1 X104.33 Y25.554 E2.63253
G1 X104.376 Y25.581 E2.6343
G1 X105.036 Y26.015 E2.66058
G1 X105.649 Y26.513 E2.68685
G1 X106.27 Y27.12 E2.71573
G1 X106.8 Y27.706 E2.74201
G1 X107.267 Y28.342 E2.76825
G1 X107.509 Y28.733 E2.78355
G1 X107.874 Y29.433 E2.8098
G1 X108.166 Y30.167 E2.83608
G1 X108.316 Y30.662 E2.85328
G1 X108.439 Y31.121 E2.86908
G1 X108.657 Y32.279 E2.90828
G1 X108.66 Y32.306 E2.90918
G1 X108.708 Y33.167 E2.93786
G1 X108.708 Y126.141 E6.03019
G1 X108.667 Y126.944 E6.05693
G1 X108.664 Y126.973 E6.0579
G1 X108.543 Y127.753 E6.08416
G1 X108.316 Y128.648 E6.11487
G1 X108.073 Y129.399 E6.14112
G1 X107.756 Y130.122 E6.16738
G1 X107.509 Y130.577 E6.1846
G1 X107.482 Y130.623 E6.18637
G1 X107.048 Y131.283 E6.21264
G1 X106.55 Y131.896 E6.23891
G1 X105.943 Y132.517 E6.26779
G1 X105.357 Y133.047 E6.29407
G1 X104.721 Y133.514 E6.32032
G1 X104.33 Y133.756 E6.33561
G1 X103.63 Y134.121 E6.36187
G1 X102.896 Y134.413 E6.38814
G1 X102.401 Y134.563 E6.40534
G1 X101.942 Y134.686 E6.42115
G1 X101.17 Y134.852 E6.44741
G1 X100.697 Y134.914 E6.46328
G1 X99.894 Y134.955 E6.49002
G1 X32.922 Y134.955 E8.71752
G1 X32.119 Y134.914 E8.74426
G1 X32.09 Y134.911 E8.74523
G1 X31.31 Y134.79 E8.77149
G1 X30.415 Y134.563 E8.8022
G1 X29.664 Y134.32 E8.82845
G1 X28.941 Y134.003 E8.85471
G1 X28.486 Y133.756 E8.87193
G1 X28.44 Y133.729 E8.8737
G1 X27.78 Y133.295 E8.89997
G1 X27.167 Y132.797 E8.92624
G1 X26.546 Y132.19 E8.95512
G1 X26.016 Y131.604 E8.9814
G1 X25.549 Y130.968 E9.00765
G1 X25.307 Y130.577 E9.02294
G1 X24.942 Y129.877 E9.0492
G1 X24.65 Y129.143 E9.07547
G1 X24.5 Y128.648 E9.09267
G1 X24.377 Y128.189 E9.10848
G1 X24.159 Y127.031 E9.14767
G1 X24.156 Y127.004 E9.14857
G1 X24.108 Y126.143 E9.17726
G1 X24.108 Y33.169 E12.26958
G1 X24.149 Y32.366 E12.29633
G1 X24.152 Y32.337 E12.2973
G1 X24.273 Y31.557 E12.32355
G1 X24.5 Y30.662 E12.35426
G1 X24.743 Y29.911 E12.38051
G1 X25.06 Y29.188 E12.40677
G1 X25.307 Y28.733 E12.42399
G1 X25.334 Y28.687 E12.42576
G1 X25.768 Y28.027 E12.45204
G1 X26.266 Y27.414 E12.47831
G1 X26.873 Y26.793 E12.50719
G0 F3600 X27.155 Y27.075
G1 F1800 X27.727 Y26.561 E12.53277
G1 X28.642 Y25.926 E12.56981
G1 X28.688 Y25.899 E12.57158
G1 X29.371 Y25.545 E12.59717
G1 X30.087 Y25.263 E12.62276
G1 X30.978 Y25.01 E12.65357
G1 X31.73 Y24.85 E12.67914
G1 X32.161 Y24.794 E12.6936
G1 X32.922 Y24.755 E12.71894
G1 X58.164 Y24.755 E13.55849
G1 X58.932 Y24.795 E13.58407
G1 X59.692 Y24.914 E13.60966
G1 X60.435 Y25.112 E13.63523
G1 X61.154 Y25.386 E13.66082
G1 X61.84 Y25.733 E13.68639
G1 X62.214 Y25.973 E13.70117
G1 X62.258 Y25.941 E13.70298
G1 X62.925 Y25.557 E13.72858
G1 X63.627 Y25.245 E13.75413
G1 X64.359 Y25.008 E13.77972
G1 X65.111 Y24.847 E13.8053
G1 X65.876 Y24.766 E13.83089
G1 X66.541 Y24.755 E13.85301
G1 X67.309 Y24.795 E13.87859
G1 X68.069 Y24.914 E13.90417
G1 X68.812 Y25.112 E13.92975
G1 X69.531 Y25.386 E13.95534
G1 X70.217 Y25.733 E13.98091
G1 X70.589 Y25.972 E13.99562
G1 X70.613 Y25.955 E13.99659
G1 X71.278 Y25.569 E14.02217
G1 X71.98 Y25.254 E14.04776
G1 X72.711 Y25.014 E14.07335
G1 X73.462 Y24.851 E14.09891
G1 X74.227 Y24.767 E14.12451
G1 X74.652 Y24.755 E14.13865
G1 X99.894 Y24.755 E14.9782
G1 X100.655 Y24.794 E15.00354
G1 X100.684 Y24.797 E15.00451
G1 X101.444 Y24.916 E15.0301
G1 X102.297 Y25.133 E15.05937
G1 X103.029 Y25.371 E15.08497
G1 X103.732 Y25.683 E15.11056
G1 X104.174 Y25.926 E15.12733
G1 X104.816 Y26.349 E15.1529
G1 X105.661 Y27.075 E15.18996
G1 X105.988 Y27.402 E15.20534
G1 X106.502 Y27.974 E15.23091
G1 X107.137 Y28.889 E15.26796
G1 X107.164 Y28.935 E15.26973
G1 X107.518 Y29.618 E15.29532
G1 X107.8 Y30.334 E15.32091
G1 X108.053 Y31.225 E15.35172
G1 X108.26 Y32.323 E15.38888
G1 X108.263 Y32.35 E15.38979
G1 X108.308 Y33.167 E15.417
G1 X108.308 Y126.141 E18.50933
G1 X108.269 Y126.902 E18.53467
G1 X108.266 Y126.931 E18.53564
G1 X108.147 Y127.691 E18.56123
G1 X107.93 Y128.544 E18.5905
G1 X107.692 Y129.276 E18.6161
G1 X107.38 Y129.979 E18.64169
G1 X107.137 Y130.421 E18.65846
G1 X106.714 Y131.063 E18.68403
G1 X105.988 Y131.908 E18.72109
G1 X105.661 Y132.235 E18.73647
G1 X105.089 Y132.749 E18.76204
G1 X104.174 Y133.384 E18.79909
G1 X104.128 Y133.411 E18.80086
G1 X103.445 Y133.765 E18.82645
G1 X102.729 Y134.047 E18.85204
G1 X101.838 Y134.3 E18.88285
G1 X101.086 Y134.46 E18.90842
G1 X100.655 Y134.516 E18.92288
G1 X99.894 Y134.555 E18.94822
G1 X32.922 Y134.555 E21.17572
G1 X32.161 Y134.516 E21.20106
G1 X32.132 Y134.513 E21.20203
G1 X31.372 Y134.394 E21.22762
G1 X30.519 Y134.177 E21.25689
G1 X29.787 Y133.939 E21.28249
G1 X29.084 Y133.627 E21.30808
G1 X28.642 Y133.384 E21.32485
G1 X28 Y132.961 E21.35042
G1 X27.155 Y132.235 E21.38748
G1 X26.828 Y131.908 E21.40286
G1 X26.314 Y131.336 E21.42844
G1 X25.679 Y130.421 E21.46548
G1 X25.652 Y130.375 E21.46725
G1 X25.298 Y129.692 E21.49284
G1 X25.016 Y128.976 E21.51843
G1 X24.763 Y128.085 E21.54924
G1 X24.556 Y126.987 E21.5864
G1 X24.553 Y126.96 E21.58731
G1 X24.508 Y126.143 E21.61452
G1 X24.508 Y33.169 E24.70685
G1 X24.547 Y32.408 E24.73219
G1 X24.55 Y32.379 E24.73316
G1 X24.669 Y31.619 E24.75875
G1 X24.886 Y30.766 E24.78802
G1 X25.124 Y30.034 E24.81362
G1 X25.436 Y29.331 E24.83921
G1 X25.679 Y28.889 E24.85598
G1 X26.102 Y28.247 E24.88155
G1 X26.828 Y27.402 E24.91861
G1 X27.155 Y27.075 E24.93399
G0 F3600 X27.438 Y27.358
G1 F1800 X27.995 Y26.858 E24.95888
G1 X28.845 Y26.271 E24.99324
G1 X28.891 Y26.244 E24.99501
G1 X29.555 Y25.9 E25.01989
G1 X30.252 Y25.63 E25.04475
G1 X31.081 Y25.397 E25.07339
G1 X32.173 Y25.195 E25.11032
G1 X32.202 Y25.192 E25.11129
G1 X32.922 Y25.155 E25.13527
G1 X58.164 Y25.155 E25.97483
G1 X58.911 Y25.195 E25.99971
G1 X59.649 Y25.314 E26.02457
G1 X60.371 Y25.512 E26.04947
G1 X61.067 Y25.785 E26.07434
G1 X61.73 Y26.132 E26.09923
G1 X62.221 Y26.459 E26.11885
G1 X62.649 Y26.168 E26.13606
G1 X63.308 Y25.815 E26.16093
G1 X64.002 Y25.535 E26.18582
G1 X64.721 Y25.33 E26.21068
G1 X65.459 Y25.203 E26.23559
G1 X66.276 Y25.155 E26.26281
G1 X66.541 Y25.155 E26.27162
G1 X67.288 Y25.195 E26.2965
G1 X68.026 Y25.314 E26.32137
G1 X68.748 Y25.512 E26.34627
G1 X69.444 Y25.785 E26.37113
G1 X70.107 Y26.132 E26.39602
G1 X70.599 Y26.46 E26.41569
G1 X70.865 Y26.268 E26.4266
G1 X71.515 Y25.897 E26.45149
G1 X72.201 Y25.598 E26.47638
G1 X72.915 Y25.374 E26.50127
G1 X73.648 Y25.227 E26.52614
G1 X74.652 Y25.155 E26.55962
G1 X99.894 Y25.155 E27.39917
G1 X100.614 Y25.192 E27.42315
G1 X100.643 Y25.195 E27.42412
G1 X101.735 Y25.397 E27.46105
G1 X102.194 Y25.52 E27.47686
G1 X102.905 Y25.752 E27.50173
G1 X103.587 Y26.058 E27.5266
G1 X103.971 Y26.271 E27.5412
G1 X104.595 Y26.684 E27.56609
G1 X105.378 Y27.358 E27.60045
G1 X105.705 Y27.685 E27.61583
G1 X106.205 Y28.242 E27.64073
G1 X106.792 Y29.092 E27.67509
G1 X106.819 Y29.138 E27.67686
G1 X107.163 Y29.802 E27.70173
G1 X107.433 Y30.499 E27.72659
G1 X107.666 Y31.328 E27.75523
G1 X107.862 Y32.367 E27.7904
G1 X107.865 Y32.394 E27.7913
G1 X107.908 Y33.167 E27.81705
G1 X107.908 Y126.141 E30.90938
G1 X107.871 Y126.861 E30.93336
G1 X107.868 Y126.89 E30.93433
G1 X107.666 Y127.982 E30.97127
G1 X107.543 Y128.441 E30.98707
G1 X107.311 Y129.152 E31.01195
G1 X107.005 Y129.834 E31.03681
G1 X106.792 Y130.218 E31.05141
G1 X106.379 Y130.842 E31.0763
G1 X105.705 Y131.625 E31.11066
G1 X105.378 Y131.952 E31.12605
G1 X104.821 Y132.452 E31.15094
G1 X103.971 Y133.039 E31.1853
G1 X103.925 Y133.066 E31.18707
G1 X103.261 Y133.41 E31.21194
G1 X102.564 Y133.68 E31.23681
G1 X101.735 Y133.913 E31.26545
G1 X100.643 Y134.115 E31.30238
G1 X100.614 Y134.118 E31.30335
G1 X99.894 Y134.155 E31.32733
G1 X32.922 Y134.155 E33.55483
G1 X32.202 Y134.118 E33.57881
G1 X32.173 Y134.115 E33.57978
G1 X31.081 Y133.913 E33.61671
G1 X30.622 Y133.79 E33.63252
G1 X29.911 Y133.558 E33.65739
G1 X29.229 Y133.252 E33.68226
G1 X28.845 Y133.039 E33.69686
G1 X28.221 Y132.626 E33.72175
G1 X27.438 Y131.952 E33.75611
G1 X27.111 Y131.625 E33.77149
G1 X26.611 Y131.068 E33.79639
G1 X26.024 Y130.218 E33.83075
G1 X25.997 Y130.172 E33.83252
G1 X25.653 Y129.508 E33.85739
G1 X25.383 Y128.811 E33.88225
G1 X25.15 Y127.982 E33.91089
G1 X24.954 Y126.943 E33.94606
G1 X24.951 Y126.916 E33.94696
G1 X24.908 Y126.143 E33.97271
G1 X24.908 Y33.169 E37.06504
G1 X24.945 Y32.449 E37.08902
G1 X24.948 Y32.42 E37.08999
G1 X25.15 Y31.328 E37.12693
G1 X25.273 Y30.869 E37.14273
G1 X25.505 Y30.158 E37.16761
G1 X25.811 Y29.476 E37.19247
G1 X26.024 Y29.092 E37.20707
G1 X26.437 Y28.468 E37.23196
G1 X27.111 Y27.685 E37.26632
G1 X27.438 Y27.358 E37.28171
G0 F3600 X27.721 Y27.641
G1 F1800 X28.262 Y27.157 E37.30585
G1 X29.047 Y26.616 E37.33756
G1 X29.093 Y26.589 E37.33933
G1 X29.739 Y26.256 E37.36351
G1 X30.726 Y25.906 E37.39834
G1 X31.185 Y25.783 E37.41414
G1 X32.214 Y25.593 E37.44894
G1 X32.243 Y25.59 E37.44991
G1 X32.922 Y25.555 E37.47253
G1 X58.164 Y25.555 E38.31208
G1 X58.889 Y25.595 E38.33623
G1 X59.606 Y25.714 E38.3604
G1 X60.305 Y25.912 E38.38457
G1 X60.978 Y26.185 E38.40872
G1 X61.617 Y26.53 E38.43288
G1 X62.214 Y26.944 E38.45704
G1 X62.426 Y26.794 E38.46568
G1 X63.038 Y26.404 E38.48981
G1 X63.69 Y26.083 E38.51399
G1 X64.373 Y25.835 E38.53815
G1 X65.079 Y25.665 E38.56231
G1 X65.799 Y25.572 E38.58645
G1 X66.541 Y25.555 E38.61114
G1 X67.266 Y25.595 E38.63529
G1 X67.983 Y25.714 E38.65946
G1 X68.682 Y25.912 E38.68363
G1 X69.355 Y26.185 E38.70778
G1 X69.994 Y26.53 E38.73193
G1 X70.6 Y26.951 E38.75648
G1 X71.117 Y26.581 E38.77762
G1 X71.751 Y26.227 E38.80177
G1 X72.42 Y25.944 E38.82593
G1 X73.116 Y25.736 E38.85009
G1 X73.831 Y25.606 E38.87426
G1 X74.652 Y25.555 E38.90162
G1 X99.894 Y25.555 E39.74118
G1 X100.573 Y25.59 E39.76379
G1 X100.602 Y25.593 E39.76476
G1 X101.631 Y25.783 E39.79956
G1 X102.09 Y25.906 E39.81537
G1 X102.781 Y26.132 E39.83955
G1 X103.723 Y26.589 E39.87437
G1 X103.769 Y26.616 E39.87615
G1 X104.374 Y27.018 E39.90031
G1 X105.095 Y27.641 E39.932
G1 X105.422 Y27.968 E39.94738
G1 X105.906 Y28.509 E39.97152
G1 X106.447 Y29.294 E40.00323
G1 X106.474 Y29.34 E40.00501
G1 X106.807 Y29.986 E40.02918
G1 X107.157 Y30.973 E40.06401
G1 X107.28 Y31.432 E40.07981
G1 X107.465 Y32.411 E40.11295
G1 X107.468 Y32.438 E40.11386
G1 X107.508 Y33.167 E40.13814
G1 X107.508 Y126.141 E43.23047
G1 X107.473 Y126.82 E43.25308
G1 X107.47 Y126.849 E43.25405
G1 X107.28 Y127.878 E43.28885
G1 X107.157 Y128.337 E43.30466
G1 X106.931 Y129.028 E43.32884
G1 X106.474 Y129.97 E43.36366
G1 X106.447 Y130.016 E43.36544
G1 X106.045 Y130.621 E43.3896
G1 X105.422 Y131.342 E43.42129
G1 X105.095 Y131.669 E43.43667
G1 X104.554 Y132.153 E43.46081
G1 X103.769 Y132.694 E43.49252
G1 X103.723 Y132.721 E43.4943
G1 X103.077 Y133.054 E43.51847
G1 X102.09 Y133.404 E43.5533
G1 X101.631 Y133.527 E43.56911
G1 X100.602 Y133.717 E43.60391
G1 X100.573 Y133.72 E43.60488
G1 X99.894 Y133.755 E43.62749
G1 X32.922 Y133.755 E45.85499
G1 X32.243 Y133.72 E45.8776
G1 X32.214 Y133.717 E45.87857
G1 X31.185 Y133.527 E45.91338
G1 X30.726 Y133.404 E45.92918
G1 X30.035 Y133.178 E45.95336
G1 X29.093 Y132.721 E45.98819
G1 X29.047 Y132.694 E45.98996
G1 X28.442 Y132.292 E46.01412
G1 X27.721 Y131.669 E46.04581
G1 X27.394 Y131.342 E46.06119
G1 X26.91 Y130.801 E46.08534
G1 X26.369 Y130.016 E46.11705
G1 X26.342 Y129.97 E46.11882
G1 X26.009 Y129.324 E46.14299
G1 X25.659 Y128.337 E46.17782
G1 X25.536 Y127.878 E46.19363
G1 X25.351 Y126.899 E46.22677
G1 X25.348 Y126.872 E46.22767
G1 X25.308 Y126.143 E46.25195
G1 X25.308 Y33.169 E49.34428
G1 X25.343 Y32.49 E49.36689
G1 X25.346 Y32.461 E49.36786
G1 X25.536 Y31.432 E49.40267
G1 X25.659 Y30.973 E49.41847
G1 X25.885 Y30.282 E49.44265
G1 X26.342 Y29.34 E49.47748
G1 X26.369 Y29.294 E49.47925
G1 X26.771 Y28.689 E49.50341
G1 X27.394 Y27.968 E49.5351
G1 X27.721 Y27.641 E49.55048
G0 F3600 X28.004 Y27.924
G1 F1800 X28.529 Y27.455 E49.5739
G1 X29.25 Y26.961 E49.60297
G1 X29.296 Y26.934 E49.60474
G1 X29.922 Y26.613 E49.62814
G1 X30.829 Y26.292 E49.66014
G1 X31.288 Y26.169 E49.67595
G1 X32.255 Y25.991 E49.70865
G1 X32.284 Y25.988 E49.70962
G1 X32.922 Y25.955 E49.73087
G1 X58.164 Y25.955 E50.57042
G1 X58.867 Y25.995 E50.59384
G1 X59.561 Y26.114 E50.61726
G1 X60.236 Y26.312 E50.64065
G1 X60.885 Y26.584 E50.66406
G1 X61.499 Y26.929 E50.68748
G1 X62.07 Y27.34 E50.71088
G1 X62.217 Y27.472 E50.71745
G1 X62.258 Y27.433 E50.71934
G1 X62.819 Y27.008 E50.74275
G1 X63.425 Y26.649 E50.76617
G1 X64.068 Y26.362 E50.78959
G1 X64.739 Y26.149 E50.81301
G1 X65.429 Y26.013 E50.8364
G1 X66.276 Y25.955 E50.86464
G1 X66.541 Y25.955 E50.87345
G1 X67.244 Y25.995 E50.89687
G1 X67.938 Y26.114 E50.92029
G1 X68.613 Y26.312 E50.94369
G1 X69.262 Y26.584 E50.96709
G1 X69.876 Y26.929 E50.99052
G1 X70.447 Y27.34 E51.01391
G1 X70.597 Y27.477 E51.02067
G1 X70.793 Y27.302 E51.02941
G1 X71.368 Y26.896 E51.05282
G1 X71.986 Y26.558 E51.07625
G1 X72.637 Y26.291 E51.09965
G1 X73.315 Y26.101 E51.12307
G1 X74.01 Y25.988 E51.14649
G1 X74.652 Y25.955 E51.16787
G1 X99.894 Y25.955 E52.00743
G1 X100.532 Y25.988 E52.02867
G1 X100.561 Y25.991 E52.02964
G1 X101.528 Y26.169 E52.06235
G1 X101.987 Y26.292 E52.07815
G1 X102.655 Y26.513 E52.10155
G1 X103.52 Y26.934 E52.13355
G1 X103.566 Y26.961 E52.13532
G1 X104.152 Y27.351 E52.15874
G1 X104.812 Y27.924 E52.18781
G1 X105.139 Y28.251 E52.20319
G1 X105.608 Y28.776 E52.2266
G1 X106.102 Y29.497 E52.25567
G1 X106.129 Y29.543 E52.25745
G1 X106.45 Y30.169 E52.28084
G1 X106.771 Y31.076 E52.31284
G1 X106.894 Y31.535 E52.32865
G1 X107.067 Y32.455 E52.35979
G1 X107.07 Y32.482 E52.36069
G1 X107.108 Y33.167 E52.38351
