;FLAVOR:Marlin
;TIME:7756
;Filament used: 6.5115m
;Layer height: 0.15
;MINX:67.7
;MINY:54.7
;MINZ:0.2
;MAXX:152.3
;MAXY:165.3
;MAXZ:5.45
;POSTPROCESSED
;Generated with Cura_SteamEngine 4.12.0
M140 S60
M105
M190 S60
M104 S200
M105
M109 S200
M82 ;absolute extrusion mode
; -- START GCODE --
G21                     ;set units to millimetres
G90                     ;set to absolute positioning
M106 S0                 ;set fan speed to zero (turned off)
G28                     ;home all axis
M420 S1                 ;turn on mesh bed levelling if enabled in firmware
G92 E0                  ;zero the extruded length
G1 Z1 F1000             ;move up slightly
G1 X60.0 Z0 E9.0 F1000.0;intro line
G1 X100.0 E21.5 F1000.0 ;continue line
G92 E0                  ;zero the extruded length again
; -- end of START GCODE --
G92 E0
G92 E0
G1 F3000 E-5
;LAYER_COUNT:36
;LAYER:0
M107
G0 F3600 X69.858 Y57.759 Z0.2
;TYPE:SKIRT
G1 F3000 E0
G1 F1800 X70.465 Y57.138 E0.02888
G1 X71.051 Y56.608 E0.05516
G1 X71.687 Y56.141 E0.08141
G1 X72.078 Y55.899 E0.0967
G1 X72.778 Y55.534 E0.12296
G1 X73.512 Y55.242 E0.14923
G1 X74.007 Y55.092 E0.16643
G1 X74.466 Y54.969 E0.18224
G1 X75.238 Y54.803 E0.2085
G1 X75.711 Y54.741 E0.22437
G1 X76.514 Y54.7 E0.25111
G1 X101.756 Y54.7 E1.09066
G1 X102.545 Y54.74 E1.11694
G1 X103.325 Y54.859 E1.14318
G1 X104.09 Y55.057 E1.16947
G1 X104.83 Y55.331 E1.19571
G1 X105.539 Y55.679 E1.22198
G1 X105.812 Y55.849 E1.23268
G1 X106.13 Y55.654 E1.24508
G1 X106.842 Y55.311 E1.27137
G1 X107.584 Y55.042 E1.29762
G1 X108.35 Y54.849 E1.32389
G1 X109.131 Y54.735 E1.35015
G1 X109.868 Y54.7 E1.37469
G1 X110.133 Y54.7 E1.3835
G1 X110.922 Y54.74 E1.40978
G1 X111.702 Y54.859 E1.43602
G1 X112.467 Y55.057 E1.4623
G1 X113.207 Y55.331 E1.48855
G1 X113.916 Y55.679 E1.51482
G1 X114.188 Y55.848 E1.52547
G1 X114.631 Y55.587 E1.54257
G1 X115.349 Y55.257 E1.56885
G1 X116.096 Y55.002 E1.5951
G1 X116.865 Y54.823 E1.62136
G1 X117.649 Y54.723 E1.64765
G1 X118.244 Y54.7 E1.66746
G1 X143.486 Y54.7 E2.50701
G1 X144.289 Y54.741 E2.53375
G1 X144.318 Y54.744 E2.53472
G1 X145.098 Y54.865 E2.56097
G1 X145.993 Y55.092 E2.59168
G1 X146.744 Y55.335 E2.61794
G1 X147.467 Y55.652 E2.64419
G1 X147.922 Y55.899 E2.66141
G1 X147.968 Y55.926 E2.66319
G1 X148.628 Y56.36 E2.68946
G1 X149.241 Y56.858 E2.71573
G1 X149.862 Y57.465 E2.74461
G1 X150.392 Y58.051 E2.77089
G1 X150.859 Y58.687 E2.79713
G1 X151.101 Y59.078 E2.81243
G1 X151.466 Y59.778 E2.83869
G1 X151.758 Y60.512 E2.86496
G1 X151.908 Y61.007 E2.88216
G1 X152.031 Y61.466 E2.89797
G1 X152.249 Y62.624 E2.93716
G1 X152.252 Y62.651 E2.93806
G1 X152.3 Y63.512 E2.96674
G1 X152.3 Y156.486 E6.05907
G1 X152.259 Y157.289 E6.08581
G1 X152.256 Y157.318 E6.08678
G1 X152.135 Y158.098 E6.11304
G1 X151.908 Y158.993 E6.14375
G1 X151.665 Y159.744 E6.17
G1 X151.348 Y160.467 E6.19626
G1 X151.101 Y160.922 E6.21348
G1 X151.074 Y160.968 E6.21525
G1 X150.64 Y161.628 E6.24152
G1 X150.142 Y162.241 E6.26779
G1 X149.535 Y162.862 E6.29668
G1 X148.949 Y163.392 E6.32296
G1 X148.313 Y163.859 E6.3492
G1 X147.922 Y164.101 E6.36449
G1 X147.222 Y164.466 E6.39075
G1 X146.488 Y164.758 E6.41702
G1 X145.993 Y164.908 E6.43423
G1 X145.534 Y165.031 E6.45003
G1 X144.762 Y165.197 E6.4763
G1 X144.289 Y165.259 E6.49216
G1 X143.486 Y165.3 E6.5189
G1 X76.514 Y165.3 E8.7464
G1 X75.711 Y165.259 E8.77315
G1 X75.682 Y165.256 E8.77411
G1 X74.902 Y165.135 E8.80037
G1 X74.007 Y164.908 E8.83108
G1 X73.256 Y164.665 E8.85733
G1 X72.533 Y164.348 E8.88359
G1 X72.078 Y164.101 E8.90081
G1 X72.032 Y164.074 E8.90258
G1 X71.372 Y163.64 E8.92885
G1 X70.759 Y163.142 E8.95512
G1 X70.138 Y162.535 E8.98401
G1 X69.608 Y161.949 E9.01029
G1 X69.141 Y161.313 E9.03653
G1 X68.899 Y160.922 E9.05182
G1 X68.534 Y160.222 E9.07808
G1 X68.242 Y159.488 E9.10435
G1 X68.092 Y158.993 E9.12156
G1 X67.969 Y158.534 E9.13736
G1 X67.751 Y157.376 E9.17655
G1 X67.748 Y157.349 E9.17746
G1 X67.7 Y156.488 E9.20614
G1 X67.7 Y63.514 E12.29847
G1 X67.741 Y62.711 E12.32521
G1 X67.744 Y62.682 E12.32618
G1 X67.865 Y61.902 E12.35243
G1 X68.092 Y61.007 E12.38314
G1 X68.335 Y60.256 E12.4094
G1 X68.652 Y59.533 E12.43565
G1 X68.899 Y59.078 E12.45287
G1 X68.926 Y59.032 E12.45465
G1 X69.36 Y58.372 E12.48092
G1 X69.858 Y57.759 E12.50719
G0 F3600 X70.42 Y57.747
G1 F1800 X70.747 Y57.42 E12.52257
G1 X71.319 Y56.906 E12.54815
G1 X72.234 Y56.271 E12.58519
G1 X72.28 Y56.244 E12.58696
G1 X72.963 Y55.89 E12.61255
G1 X73.679 Y55.608 E12.63815
G1 X74.57 Y55.355 E12.66895
G1 X75.322 Y55.195 E12.69452
G1 X75.753 Y55.139 E12.70898
G1 X76.514 Y55.1 E12.73432
G1 X101.756 Y55.1 E13.57388
G1 X102.524 Y55.14 E13.59945
G1 X103.284 Y55.259 E13.62504
G1 X104.027 Y55.457 E13.65061
G1 X104.746 Y55.731 E13.67621
G1 X105.432 Y56.078 E13.70177
G1 X105.806 Y56.318 E13.71656
G1 X105.85 Y56.286 E13.71836
G1 X106.517 Y55.902 E13.74396
G1 X107.219 Y55.59 E13.76951
G1 X107.951 Y55.353 E13.7951
G1 X108.703 Y55.192 E13.82068
G1 X109.468 Y55.111 E13.84627
G1 X110.133 Y55.1 E13.86839
G1 X110.901 Y55.14 E13.89397
G1 X111.661 Y55.259 E13.91955
G1 X112.404 Y55.457 E13.94513
G1 X113.123 Y55.731 E13.97072
G1 X113.809 Y56.078 E13.99629
G1 X114.181 Y56.317 E14.011
G1 X114.205 Y56.3 E14.01197
G1 X114.87 Y55.914 E14.03755
G1 X115.572 Y55.599 E14.06314
G1 X116.303 Y55.359 E14.08873
G1 X117.054 Y55.196 E14.11429
G1 X117.819 Y55.112 E14.13989
G1 X118.244 Y55.1 E14.15403
G1 X143.486 Y55.1 E14.99358
G1 X144.247 Y55.139 E15.01892
G1 X144.276 Y55.142 E15.01989
G1 X145.036 Y55.261 E15.04548
G1 X145.889 Y55.478 E15.07475
G1 X146.621 Y55.716 E15.10036
G1 X147.324 Y56.028 E15.12594
G1 X147.766 Y56.271 E15.14271
G1 X148.408 Y56.694 E15.16828
G1 X149.253 Y57.42 E15.20534
G1 X149.58 Y57.747 E15.22072
G1 X150.094 Y58.319 E15.2463
G1 X150.729 Y59.234 E15.28334
G1 X150.756 Y59.28 E15.28511
G1 X151.11 Y59.963 E15.3107
G1 X151.392 Y60.679 E15.3363
G1 X151.645 Y61.57 E15.3671
G1 X151.852 Y62.668 E15.40426
G1 X151.855 Y62.695 E15.40517
G1 X151.9 Y63.512 E15.43238
G1 X151.9 Y156.486 E18.52471
G1 X151.861 Y157.247 E18.55005
G1 X151.858 Y157.276 E18.55102
G1 X151.739 Y158.036 E18.57661
G1 X151.522 Y158.889 E18.60588
G1 X151.284 Y159.621 E18.63149
G1 X150.972 Y160.324 E18.65707
G1 X150.729 Y160.766 E18.67384
G1 X150.306 Y161.408 E18.69941
G1 X149.58 Y162.253 E18.73647
G1 X149.253 Y162.58 E18.75185
G1 X148.681 Y163.094 E18.77743
G1 X147.766 Y163.729 E18.81447
G1 X147.72 Y163.756 E18.81624
G1 X147.037 Y164.11 E18.84183
G1 X146.321 Y164.392 E18.86743
G1 X145.43 Y164.645 E18.89823
G1 X144.678 Y164.805 E18.9238
G1 X144.247 Y164.861 E18.93826
G1 X143.486 Y164.9 E18.9636
G1 X76.514 Y164.9 E21.1911
G1 X75.753 Y164.861 E21.21644
G1 X75.724 Y164.858 E21.21741
G1 X74.964 Y164.739 E21.243
G1 X74.111 Y164.522 E21.27227
G1 X73.379 Y164.284 E21.29788
G1 X72.676 Y163.972 E21.32346
G1 X72.234 Y163.729 E21.34023
G1 X71.592 Y163.306 E21.3658
G1 X70.747 Y162.58 E21.40286
G1 X70.42 Y162.253 E21.41824
G1 X69.906 Y161.681 E21.44382
G1 X69.271 Y160.766 E21.48086
G1 X69.244 Y160.72 E21.48263
G1 X68.89 Y160.037 E21.50822
G1 X68.608 Y159.321 E21.53382
G1 X68.355 Y158.43 E21.56462
G1 X68.148 Y157.332 E21.60178
G1 X68.145 Y157.305 E21.60269
G1 X68.1 Y156.488 E21.6299
G1 X68.1 Y63.514 E24.72223
G1 X68.139 Y62.753 E24.74757
G1 X68.142 Y62.724 E24.74854
G1 X68.261 Y61.964 E24.77413
G1 X68.478 Y61.111 E24.8034
G1 X68.716 Y60.379 E24.82901
G1 X69.028 Y59.676 E24.85459
G1 X69.271 Y59.234 E24.87136
G1 X69.694 Y58.592 E24.89693
G1 X70.42 Y57.747 E24.93399
G0 F3600 X70.703 Y58.03
G1 F1800 X71.03 Y57.703 E24.94937
G1 X71.587 Y57.203 E24.97426
G1 X72.437 Y56.616 E25.00862
G1 X72.483 Y56.589 E25.0104
G1 X73.147 Y56.245 E25.03527
G1 X73.844 Y55.975 E25.06013
G1 X74.673 Y55.742 E25.08877
G1 X75.765 Y55.54 E25.12571
G1 X75.794 Y55.537 E25.12668
G1 X76.514 Y55.5 E25.15065
G1 X101.756 Y55.5 E25.99021
G1 X102.503 Y55.54 E26.01509
G1 X103.241 Y55.659 E26.03995
G1 X103.963 Y55.857 E26.06485
G1 X104.659 Y56.13 E26.08972
G1 X105.322 Y56.477 E26.11461
G1 X105.813 Y56.804 E26.13423
G1 X106.241 Y56.513 E26.15144
G1 X106.9 Y56.16 E26.17631
G1 X107.594 Y55.88 E26.2012
G1 X108.313 Y55.675 E26.22606
G1 X109.051 Y55.548 E26.25097
G1 X109.868 Y55.5 E26.27819
G1 X110.133 Y55.5 E26.28701
G1 X110.88 Y55.54 E26.31189
G1 X111.618 Y55.659 E26.33675
G1 X112.34 Y55.857 E26.36165
G1 X113.036 Y56.13 E26.38652
G1 X113.699 Y56.477 E26.4114
G1 X114.191 Y56.805 E26.43107
G1 X114.457 Y56.613 E26.44198
G1 X115.107 Y56.242 E26.46688
G1 X115.793 Y55.943 E26.49177
G1 X116.507 Y55.719 E26.51665
G1 X117.24 Y55.572 E26.54152
G1 X118.244 Y55.5 E26.575
G1 X143.486 Y55.5 E27.41455
G1 X144.206 Y55.537 E27.43853
G1 X144.235 Y55.54 E27.4395
G1 X145.327 Y55.742 E27.47644
G1 X145.786 Y55.865 E27.49224
G1 X146.497 Y56.097 E27.51712
G1 X147.179 Y56.403 E27.54198
G1 X147.563 Y56.616 E27.55658
G1 X148.187 Y57.029 E27.58147
G1 X148.97 Y57.703 E27.61583
G1 X149.297 Y58.03 E27.63121
G1 X149.797 Y58.587 E27.65611
G1 X150.384 Y59.437 E27.69047
G1 X150.411 Y59.483 E27.69224
G1 X150.755 Y60.147 E27.71711
G1 X151.025 Y60.844 E27.74197
G1 X151.258 Y61.673 E27.77062
G1 X151.454 Y62.712 E27.80578
G1 X151.457 Y62.739 E27.80669
G1 X151.5 Y63.512 E27.83244
G1 X151.5 Y156.486 E30.92476
G1 X151.463 Y157.206 E30.94874
G1 X151.46 Y157.235 E30.94971
G1 X151.258 Y158.327 E30.98665
G1 X151.135 Y158.786 E31.00245
G1 X150.903 Y159.497 E31.02733
G1 X150.597 Y160.179 E31.05219
G1 X150.384 Y160.563 E31.0668
G1 X149.971 Y161.187 E31.09168
G1 X149.297 Y161.97 E31.12605
G1 X148.97 Y162.297 E31.14143
G1 X148.413 Y162.797 E31.16632
G1 X147.563 Y163.384 E31.20068
G1 X147.517 Y163.411 E31.20245
G1 X146.853 Y163.755 E31.22733
G1 X146.156 Y164.025 E31.25219
G1 X145.327 Y164.258 E31.28083
G1 X144.235 Y164.46 E31.31776
G1 X144.206 Y164.463 E31.31873
G1 X143.486 Y164.5 E31.34271
G1 X76.514 Y164.5 E33.57021
G1 X75.794 Y164.463 E33.59419
G1 X75.765 Y164.46 E33.59516
G1 X74.673 Y164.258 E33.6321
G1 X74.214 Y164.135 E33.6479
G1 X73.503 Y163.903 E33.67278
G1 X72.821 Y163.597 E33.69764
G1 X72.437 Y163.384 E33.71224
G1 X71.813 Y162.971 E33.73713
G1 X71.03 Y162.297 E33.77149
G1 X70.703 Y161.97 E33.78687
G1 X70.203 Y161.413 E33.81177
G1 X69.616 Y160.563 E33.84613
G1 X69.589 Y160.517 E33.8479
G1 X69.245 Y159.853 E33.87277
G1 X68.975 Y159.156 E33.89763
G1 X68.742 Y158.327 E33.92628
G1 X68.546 Y157.288 E33.96144
G1 X68.543 Y157.261 E33.96235
G1 X68.5 Y156.488 E33.9881
G1 X68.5 Y63.514 E37.08042
G1 X68.537 Y62.794 E37.1044
G1 X68.54 Y62.765 E37.10537
G1 X68.742 Y61.673 E37.14231
G1 X68.865 Y61.214 E37.15811
G1 X69.097 Y60.503 E37.18299
G1 X69.403 Y59.821 E37.20785
G1 X69.616 Y59.437 E37.22246
G1 X70.029 Y58.813 E37.24734
G1 X70.703 Y58.03 E37.28171
G0 F3600 X70.986 Y58.313
G1 F1800 X71.313 Y57.986 E37.29709
G1 X71.854 Y57.502 E37.32123
G1 X72.639 Y56.961 E37.35294
G1 X72.685 Y56.934 E37.35471
G1 X73.331 Y56.601 E37.37889
G1 X74.318 Y56.251 E37.41372
G1 X74.777 Y56.128 E37.42952
G1 X75.806 Y55.938 E37.46433
G1 X75.835 Y55.935 E37.4653
G1 X76.514 Y55.9 E37.48791
G1 X101.756 Y55.9 E38.32746
G1 X102.481 Y55.94 E38.35161
G1 X103.198 Y56.059 E38.37579
G1 X103.897 Y56.257 E38.39995
G1 X104.57 Y56.53 E38.4241
G1 X105.209 Y56.875 E38.44826
G1 X105.806 Y57.289 E38.47242
G1 X106.018 Y57.139 E38.48106
G1 X106.63 Y56.749 E38.5052
G1 X107.282 Y56.428 E38.52937
G1 X107.965 Y56.18 E38.55353
G1 X108.671 Y56.01 E38.57769
G1 X109.391 Y55.917 E38.60183
G1 X110.133 Y55.9 E38.62652
G1 X110.858 Y55.94 E38.65067
G1 X111.575 Y56.059 E38.67484
G1 X112.274 Y56.257 E38.69901
G1 X112.947 Y56.53 E38.72316
G1 X113.586 Y56.875 E38.74732
G1 X114.192 Y57.296 E38.77186
G1 X114.709 Y56.926 E38.793
G1 X115.343 Y56.572 E38.81715
G1 X116.012 Y56.289 E38.84131
G1 X116.708 Y56.081 E38.86548
G1 X117.423 Y55.951 E38.88965
G1 X118.244 Y55.9 E38.91701
G1 X143.486 Y55.9 E39.75656
G1 X144.165 Y55.935 E39.77917
G1 X144.194 Y55.938 E39.78014
G1 X145.223 Y56.128 E39.81494
G1 X145.682 Y56.251 E39.83075
G1 X146.373 Y56.477 E39.85493
G1 X147.315 Y56.934 E39.88975
G1 X147.361 Y56.961 E39.89153
G1 X147.966 Y57.363 E39.91569
G1 X148.687 Y57.986 E39.94738
G1 X149.014 Y58.313 E39.96276
G1 X149.498 Y58.854 E39.9869
G1 X150.039 Y59.639 E40.01861
G1 X150.066 Y59.685 E40.02039
G1 X150.399 Y60.331 E40.04456
G1 X150.749 Y61.318 E40.07939
G1 X150.872 Y61.777 E40.0952
G1 X151.057 Y62.756 E40.12833
G1 X151.06 Y62.783 E40.12924
G1 X151.1 Y63.512 E40.15352
G1 X151.1 Y156.486 E43.24585
G1 X151.065 Y157.165 E43.26846
G1 X151.062 Y157.194 E43.26943
G1 X150.872 Y158.223 E43.30423
G1 X150.749 Y158.682 E43.32004
G1 X150.523 Y159.373 E43.34422
G1 X150.066 Y160.315 E43.37904
G1 X150.039 Y160.361 E43.38082
G1 X149.637 Y160.966 E43.40498
G1 X149.014 Y161.687 E43.43667
G1 X148.687 Y162.014 E43.45205
G1 X148.146 Y162.498 E43.47619
G1 X147.361 Y163.039 E43.5079
G1 X147.315 Y163.066 E43.50968
G1 X146.669 Y163.399 E43.53385
G1 X145.682 Y163.749 E43.56868
G1 X145.223 Y163.872 E43.58449
G1 X144.194 Y164.062 E43.61929
G1 X144.165 Y164.065 E43.62026
G1 X143.486 Y164.1 E43.64287
G1 X76.514 Y164.1 E45.87037
G1 X75.835 Y164.065 E45.89298
G1 X75.806 Y164.062 E45.89395
G1 X74.777 Y163.872 E45.92876
G1 X74.318 Y163.749 E45.94456
G1 X73.627 Y163.523 E45.96874
G1 X72.685 Y163.066 E46.00357
G1 X72.639 Y163.039 E46.00534
G1 X72.034 Y162.637 E46.0295
G1 X71.313 Y162.014 E46.06119
G1 X70.986 Y161.687 E46.07657
G1 X70.502 Y161.146 E46.10072
G1 X69.961 Y160.361 E46.13243
G1 X69.934 Y160.315 E46.1342
G1 X69.601 Y159.669 E46.15837
G1 X69.251 Y158.682 E46.1932
G1 X69.128 Y158.223 E46.20901
G1 X68.943 Y157.244 E46.24215
G1 X68.94 Y157.217 E46.24305
G1 X68.9 Y156.488 E46.26733
G1 X68.9 Y63.514 E49.35966
G1 X68.935 Y62.835 E49.38228
G1 X68.938 Y62.806 E49.38324
G1 X69.128 Y61.777 E49.41805
G1 X69.251 Y61.318 E49.43385
G1 X69.477 Y60.627 E49.45803
G1 X69.934 Y59.685 E49.49286
G1 X69.961 Y59.639 E49.49463
G1 X70.363 Y59.034 E49.51879
G1 X70.986 Y58.313 E49.55048
G0 F3600 X71.269 Y58.596
G1 F1800 X71.596 Y58.269 E49.56586
G1 X72.121 Y57.8 E49.58928
G1 X72.842 Y57.306 E49.61835
G1 X72.888 Y57.279 E49.62012
G1 X73.514 Y56.958 E49.64352
G1 X74.421 Y56.637 E49.67552
G1 X74.88 Y56.514 E49.69133
G1 X75.847 Y56.336 E49.72403
G1 X75.876 Y56.333 E49.725
G1 X76.514 Y56.3 E49.74625
G1 X101.756 Y56.3 E50.5858
G1 X102.459 Y56.34 E50.60922
G1 X103.153 Y56.459 E50.63264
G1 X103.828 Y56.657 E50.65604
G1 X104.477 Y56.929 E50.67944
G1 X105.091 Y57.274 E50.70287
G1 X105.662 Y57.685 E50.72626
G1 X105.809 Y57.817 E50.73284
G1 X105.85 Y57.778 E50.73472
G1 X106.411 Y57.353 E50.75813
G1 X107.017 Y56.994 E50.78155
G1 X107.66 Y56.707 E50.80497
G1 X108.331 Y56.494 E50.82839
G1 X109.021 Y56.358 E50.85178
G1 X109.868 Y56.3 E50.88002
G1 X110.133 Y56.3 E50.88883
G1 X110.836 Y56.34 E50.91225
G1 X111.53 Y56.459 E50.93567
G1 X112.205 Y56.657 E50.95907
G1 X112.854 Y56.929 E50.98247
G1 X113.468 Y57.274 E51.0059
G1 X114.039 Y57.685 E51.0293
G1 X114.189 Y57.822 E51.03605
G1 X114.385 Y57.647 E51.04479
G1 X114.96 Y57.241 E51.0682
G1 X115.578 Y56.903 E51.09163
G1 X116.229 Y56.636 E51.11503
G1 X116.907 Y56.446 E51.13845
G1 X117.602 Y56.333 E51.16187
G1 X118.244 Y56.3 E51.18325
G1 X143.486 Y56.3 E52.02281
G1 X144.124 Y56.333 E52.04405
G1 X144.153 Y56.336 E52.04502
G1 X145.12 Y56.514 E52.07773
G1 X145.579 Y56.637 E52.09353
G1 X146.247 Y56.858 E52.11693
G1 X147.112 Y57.279 E52.14893
G1 X147.158 Y57.306 E52.15071
G1 X147.744 Y57.696 E52.17412
G1 X148.404 Y58.269 E52.20319
G1 X148.731 Y58.596 E52.21857
G1 X149.2 Y59.121 E52.24198
G1 X149.694 Y59.842 E52.27105
G1 X149.721 Y59.888 E52.27283
G1 X150.042 Y60.514 E52.29623
G1 X150.363 Y61.421 E52.32823
G1 X150.486 Y61.88 E52.34403
G1 X150.659 Y62.8 E52.37517
G1 X150.662 Y62.827 E52.37607
